packages/ffe-icons/icons/open/300/md/pending.svg

<svg xmlns="http://www.w3.org/2000/svg" height="24" viewBox="0 -960 960 960" width="24"><path d="M279.955-430.001q20.814 0 35.429-14.57 14.615-14.57 14.615-35.384t-14.57-35.429q-14.57-14.615-35.384-14.615t-35.429 14.57q-14.615 14.57-14.615 35.384t14.57 35.429q14.57 14.615 35.384 14.615Zm200 0q20.814 0 35.429-14.57 14.615-14.57 14.615-35.384t-14.57-35.429q-14.57-14.615-35.384-14.615t-35.429 14.57q-14.615 14.57-14.615 35.384t14.57 35.429q14.57 14.615 35.384 14.615Zm200 0q20.814 0 35.429-14.57 14.615-14.57 14.615-35.384t-14.57-35.429q-14.57-14.615-35.384-14.615t-35.429 14.57q-14.615 14.57-14.615 35.384t14.57 35.429q14.57 14.615 35.384 14.615Zm-199.888 330q-78.836 0-148.204-29.92-69.369-29.92-120.682-81.21-51.314-51.291-81.247-120.629-29.933-69.337-29.933-148.173t29.92-148.204q29.92-69.369 81.21-120.682 51.291-51.314 120.629-81.247 69.337-29.933 148.173-29.933t148.204 29.92q69.369 29.92 120.682 81.21 51.314 51.291 81.247 120.629 29.933 69.337 29.933 148.173t-29.92 148.204q-29.92 69.369-81.21 120.682-51.291 51.314-120.629 81.247-69.337 29.933-148.173 29.933ZM480-160q134 0 227-93t93-227q0-134-93-227t-227-93q-134 0-227 93t-93 227q0 134 93 227t227 93Zm0-320Z"/></svg>

<svg xmlns="http://www.w3.org/2000/svg" height="24" viewBox="0 -960 960 960" width="24"><path d="M279.95-430q20.82 0 35.43-14.57Q330-459.14 330-479.95q0-20.82-14.57-35.43Q300.86-530 280.05-530q-20.82 0-35.43 14.57Q230-500.86 230-480.05q0 20.82 14.57 35.43Q259.14-430 279.95-430Zm200 0q20.82 0 35.43-14.57Q530-459.14 530-479.95q0-20.82-14.57-35.43Q500.86-530 480.05-530q-20.82 0-35.43 14.57Q430-500.86 430-480.05q0 20.82 14.57 35.43Q459.14-430 479.95-430Zm200 0q20.82 0 35.43-14.57Q730-459.14 730-479.95q0-20.82-14.57-35.43Q700.86-530 680.05-530q-20.82 0-35.43 14.57Q630-500.86 630-480.05q0 20.82 14.57 35.43Q659.14-430 679.95-430ZM480.07-100q-78.84 0-148.21-29.92t-120.68-81.21q-51.31-51.29-81.25-120.63Q100-401.1 100-479.93q0-78.84 29.92-148.21t81.21-120.68q51.29-51.31 120.63-81.25Q401.1-860 479.93-860q78.84 0 148.21 29.92t120.68 81.21q51.31 51.29 81.25 120.63Q860-558.9 860-480.07q0 78.84-29.92 148.21t-81.21 120.68q-51.29 51.31-120.63 81.25Q558.9-100 480.07-100Zm-.07-60q134 0 227-93t93-227q0-134-93-227t-227-93q-134 0-227 93t-93 227q0 134 93 227t227 93Zm0-320Z"/></svg>
